X: 8411
T: Cowboy, The
R: jig
M: 6/8
K: Amajor
|:B|AFE A2 B|cff ecB|AFE ABc|dcB AFE|
AFE A2 B|cff ecB|AFE A2 B|1 cAA A2:|2 cAA Ace||
f2 e f2 e|faf fec|e2 c e2 c|eaf ece|
f2 e f2 g|agf ecB|AFE A2 B|1 cAA Ace:|2 cAA A2||

